lib/logo_updates/nrk-logo-nrk-sport-title-below-on-light.svg

<svg width="147" height="117" viewBox="0 0 147 117" fill="none" xmlns="http://www.w3.org/2000/svg">
<path d="M0 43V1.00381H13.7802V43H0ZM32.5283 7.68773L40.4532 43H25.3721L15.9092 1.00381H24.3676C26.3072 0.978642 28.1892 1.66237 29.6607 2.92636C31.1347 4.13734 32.1473 5.81844 32.5283 7.68773ZM42.5233 43V1.00381H56.3035V43H42.5233ZM66.7116 16.9743C65.2267 16.9888 63.7656 16.6003 62.4839 15.8504C61.2193 15.1194 60.1688 14.0689 59.438 12.8041C58.6872 11.5222 58.2986 10.0607 58.3134 8.57511C58.2964 7.09861 58.6853 5.64583 59.438 4.3755C60.1766 3.12447 61.2259 2.08533 62.4839 1.35882C63.766 0.609758 65.2269 0.221301 66.7116 0.234844C68.1877 0.218947 69.6399 0.607751 70.9108 1.35882C72.1562 2.09169 73.1943 3.12996 73.9271 4.3755C74.6789 5.64618 75.0677 7.09873 75.0517 8.57511C75.0655 10.0605 74.6769 11.5218 73.9271 12.8041C73.202 14.0633 72.1627 15.113 70.9108 15.8504C69.6398 16.6029 68.1866 16.9918 66.7097 16.9743H66.7116ZM77.1807 43V1.00381H90.9621V43H77.1807ZM108.408 23.9538C108.447 23.9946 108.742 24.4776 109.295 25.403C109.848 26.3283 110.567 27.5114 111.454 28.952C112.341 30.392 113.277 31.9199 114.262 33.536C115.247 35.1521 116.174 36.6803 117.043 38.1202C117.908 39.5602 118.894 41.1867 120 43H104.859C103.912 41.4621 103.055 40.0721 102.286 38.83C101.517 37.5878 100.7 36.2471 99.8334 34.8077C98.9653 33.3698 98.1071 31.9699 97.2587 30.6081C96.4103 29.2464 95.6813 28.0536 95.0714 27.0297C94.459 26.0051 94.0348 25.3149 93.7989 24.9594C93.2139 24.0771 92.8677 23.058 92.7944 22.0019C92.853 20.9883 93.1791 20.0084 93.7397 19.1619C93.9762 18.7676 94.41 18.0675 95.0409 17.062C95.6717 16.0564 96.411 14.8637 97.2587 13.4835C98.1064 12.1034 98.9647 10.6936 99.8334 9.25431C100.702 7.81501 101.519 6.46432 102.286 5.20247C103.056 3.94193 103.914 2.54205 104.859 1.00285H120L108.289 20.1082C107.926 20.6755 107.722 21.3292 107.697 22.0019C107.736 22.7081 107.983 23.3871 108.406 23.9538H108.408Z" fill="#0A2343"/>
<path d="M25.7804 83.3847C24.919 82.507 23.919 81.7769 22.8205 81.2239C21.6694 80.6412 20.4715 80.1561 19.2392 79.7736C17.9763 79.379 16.674 79.0432 15.3322 78.7663C14.3048 78.5301 13.3476 78.2937 12.461 78.0569C11.6461 77.8464 10.8533 77.5587 10.0932 77.1976C9.43982 76.8882 8.83243 76.4898 8.28852 76.0137C7.77617 75.5621 7.38001 74.9939 7.13328 74.3571C6.86089 73.608 6.73081 72.8146 6.74956 72.0178C6.7364 71.1927 6.86617 70.3715 7.13328 69.5907C7.37627 68.9021 7.78246 68.2825 8.31718 67.7851C8.87131 67.2778 9.50038 66.8589 10.182 66.5431C10.9618 66.1875 11.7895 65.9481 12.6387 65.8326C13.6485 65.6887 14.6673 65.6195 15.6872 65.6254C16.6166 65.6273 17.5453 65.6764 18.4696 65.7725C19.4044 65.8701 20.3333 66.0186 21.2519 66.2174C22.1441 66.4109 23.0237 66.658 23.8862 66.9574C24.6937 67.2351 25.4758 67.5814 26.2243 67.9924L27.0532 62.784C26.2114 62.3448 25.3293 61.988 24.419 61.7185C23.4915 61.4429 22.5542 61.2057 21.607 61.007C20.6485 60.8089 19.6803 60.6611 18.7064 60.5641C17.7197 60.4654 16.7133 60.416 15.6872 60.416C13.5939 60.3933 11.5058 60.6316 9.47145 61.1254C7.73903 61.5438 6.10194 62.2875 4.64697 63.3168C3.30651 64.2784 2.22801 65.5601 1.50957 67.0452C0.743257 68.7144 0.368559 70.5368 0.414305 72.373C0.380409 73.794 0.611205 75.2089 1.09502 76.5454C1.51966 77.666 2.17534 78.6849 3.01913 79.5359C3.8535 80.3688 4.81156 81.0677 5.85953 81.6078C6.97118 82.1804 8.13014 82.6561 9.32356 83.0295C10.5667 83.4242 11.8396 83.7596 13.1419 84.0359C14.2075 84.272 15.1941 84.5187 16.1018 84.7759C16.9462 85.0086 17.7683 85.3156 18.5585 85.6934C19.2377 86.014 19.8659 86.4328 20.4231 86.9365C20.9519 87.4333 21.366 88.0394 21.6366 88.7125C21.9502 89.5236 22.1011 90.3885 22.0805 91.2579C22.0961 92.1825 21.9561 93.103 21.6662 93.981C21.4065 94.7405 21.0048 95.4436 20.4823 96.0529C19.9571 96.6534 19.3116 97.1371 18.5879 97.4728C17.7697 97.8496 16.9026 98.1089 16.0119 98.2432C14.9252 98.41 13.8268 98.4893 12.7274 98.4801C11.6585 98.4774 10.5909 98.4082 9.53071 98.2728C8.42569 98.1347 7.32081 97.947 6.21579 97.7095C5.12667 97.4776 4.04987 97.1912 2.9895 96.8512C1.94368 96.5177 0.94716 96.1726 0 95.8161L0.769596 101.677C1.7787 102.053 2.80596 102.379 3.84774 102.653C4.79354 102.901 5.75209 103.098 6.71897 103.245C7.64509 103.382 8.57234 103.49 9.50108 103.57C10.4298 103.65 11.3669 103.689 12.3121 103.688C14.4314 103.702 16.5456 103.483 18.6175 103.037C20.4516 102.653 22.1981 101.93 23.7676 100.906C25.2321 99.9369 26.4164 98.5997 27.2013 97.0287C28.0662 95.168 28.4819 93.1301 28.4148 91.0793C28.447 89.5514 28.2166 88.0294 27.7339 86.5794C27.321 85.386 26.6546 84.2961 25.7804 83.3847Z" fill="#F34531"/>
<path d="M58.3391 74.0611C56.2145 72.7603 53.7549 72.1119 51.2651 72.1964C49.7874 72.2037 48.3163 72.3922 46.8845 72.7577C45.3372 73.1517 43.8456 73.7387 42.4447 74.505C42.1665 74.655 41.8902 74.8237 41.6159 74.9924V72.2555L35.5779 73.2027V115.469H41.6159V102.215C41.6563 102.232 41.6939 102.251 41.7344 102.269C42.8282 102.723 43.9701 103.05 45.1382 103.245C46.5172 103.473 47.9131 103.582 49.3106 103.571C51.9761 103.617 54.6044 102.942 56.9175 101.616C59.1892 100.27 61.0356 98.3114 62.2452 95.9641C63.6432 93.1654 64.3246 90.0634 64.2283 86.9365C64.284 84.2925 63.7688 81.6676 62.7178 79.2409C61.7924 77.1256 60.2709 75.3256 58.3391 74.0611ZM56.7706 93.8626C56.0594 95.4345 54.8673 96.7401 53.3665 97.5911C51.6982 98.4653 49.8325 98.8938 47.9499 98.8352C47.0481 98.8359 46.1475 98.7662 45.2565 98.627C44.3215 98.478 43.4006 98.2507 42.5037 97.9472C42.2196 97.8486 41.9119 97.7361 41.6159 97.6276V78.9458C41.6938 78.9093 41.7747 78.862 41.8527 78.8264C42.7202 78.4318 43.5292 78.096 44.2797 77.8191C44.9897 77.5539 45.723 77.3557 46.47 77.2272C47.1349 77.1126 47.8081 77.0532 48.4828 77.0495C50.3074 76.9888 52.1184 77.3857 53.7505 78.2039C55.1779 78.9808 56.2957 80.2237 56.9175 81.7251C57.6701 83.6464 58.0227 85.701 57.9535 87.7633C58.0163 89.8589 57.6122 91.9424 56.7706 93.8626Z" fill="#F34531"/>
<path d="M93.0879 74.0904C90.6216 72.7797 87.859 72.1273 85.0668 72.1962C82.2487 72.1316 79.4628 72.805 76.9854 74.1497C74.6984 75.4294 72.828 77.3407 71.5983 79.655C70.2623 82.251 69.6008 85.1414 69.6744 88.0601C69.5989 90.9564 70.2181 93.8286 71.48 96.4365C72.6141 98.7131 74.4229 100.584 76.6598 101.795C79.0678 103.056 81.756 103.687 84.4738 103.629C87.3188 103.686 90.131 103.013 92.6431 101.677C94.9887 100.397 96.9121 98.4635 98.1791 96.111C99.5534 93.4844 100.236 90.551 100.162 87.5875C100.229 84.7645 99.5985 81.9686 98.326 79.4479C97.1467 77.1845 95.3242 75.3204 93.0879 74.0904ZM92.7319 93.9217C92.0667 95.4597 90.9395 96.7527 89.5066 97.6215C88.0663 98.4457 86.4299 98.865 84.7708 98.8351C83.1434 98.8755 81.5393 98.4434 80.1525 97.5909C78.7805 96.6796 77.7093 95.3821 77.0741 93.8624C76.2684 91.9128 75.8851 89.8145 75.9494 87.7059C75.8795 85.6541 76.2634 83.6121 77.0741 81.7259C77.7383 80.2434 78.8448 79.0028 80.2421 78.1741C81.7352 77.3516 83.4211 76.943 85.1251 76.9902C86.4556 76.9569 87.7777 77.2093 89.0025 77.7302C90.0752 78.2145 91.0111 78.9572 91.7265 79.8918C92.4893 80.9072 93.0423 82.0644 93.3534 83.2957C93.7233 84.7361 93.9024 86.2189 93.8862 87.7059C93.9552 89.837 93.5621 91.9577 92.7319 93.9217Z" fill="#F34531"/>
<path d="M119.873 72.6392C118.766 72.9368 117.709 73.3956 116.735 74.0008C115.726 74.6316 114.793 75.3765 113.953 76.2207C113.813 76.3608 113.678 76.5167 113.539 76.6637V72.2554L107.501 73.1434V103.038H113.539V80.6733C113.987 80.3597 114.452 80.0693 114.93 79.8031C115.522 79.4762 116.136 79.1895 116.766 78.9447C117.377 78.708 117.999 78.5008 118.63 78.3232C119.28 78.1421 119.943 78.0132 120.613 77.9374C121.33 77.8585 122.053 77.8391 122.774 77.8792L123.484 72.3137C122.271 72.2274 121.051 72.3373 119.873 72.6392Z" fill="#F34531"/>
<path d="M145.565 98.0953C145.287 98.1545 144.982 98.2126 144.646 98.2728L143.641 98.4495C143.318 98.5079 142.992 98.5477 142.664 98.5688C142.347 98.5886 142.051 98.5985 141.776 98.5985C140.869 98.6227 139.968 98.4405 139.142 98.0657C138.432 97.7284 137.843 97.1807 137.455 96.497C137.04 95.7244 136.836 94.8564 136.863 93.9801V77.5833H145.21L145.861 72.8475H136.863V63.4952L130.825 65.6264V72.8475H126.266L125.614 77.5833H130.825V95.2242C130.798 96.4008 130.978 97.5731 131.357 98.6872C131.662 99.5684 132.134 100.382 132.748 101.084C133.311 101.709 133.996 102.213 134.761 102.564C135.544 102.924 136.369 103.183 137.217 103.334C138.057 103.489 138.909 103.568 139.762 103.571C140.394 103.571 141.016 103.551 141.628 103.511C142.24 103.471 142.803 103.412 143.315 103.334C143.827 103.254 144.312 103.165 144.766 103.067C145.22 102.968 145.603 102.881 145.919 102.802L146.275 97.8871C146.045 97.9763 145.807 98.046 145.565 98.0953Z" fill="#F34531"/>
</svg>

<svg xmlns="http://www.w3.org/2000/svg" viewBox="0 0 147 117"><path fill="#0A2343" d="M0 43V1.004h13.78V43H0ZM32.528 7.688 40.453 43h-15.08L15.908 1.004h8.459a7.965 7.965 0 0 1 5.293 1.922 8.31 8.31 0 0 1 2.867 4.762ZM42.523 43V1.004h13.78V43h-13.78Zm24.189-26.026a8.213 8.213 0 0 1-4.228-1.124 8.336 8.336 0 0 1-3.046-3.046 8.206 8.206 0 0 1-1.125-4.229 8.056 8.056 0 0 1 1.125-4.2 8.437 8.437 0 0 1 3.046-3.016A8.232 8.232 0 0 1 66.712.235a8.083 8.083 0 0 1 4.199 1.124 8.503 8.503 0 0 1 3.016 3.016 8.075 8.075 0 0 1 1.125 4.2 8.226 8.226 0 0 1-1.125 4.23 8.4 8.4 0 0 1-3.016 3.045 8.059 8.059 0 0 1-4.201 1.124h.002ZM77.18 43V1.004h13.781V43H77.181Zm31.227-19.046c.039.04.334.524.887 1.449.553.925 1.272 2.108 2.159 3.549a1143.28 1143.28 0 0 1 5.589 9.168A854.89 854.89 0 0 0 120 43h-15.141c-.947-1.538-1.804-2.928-2.573-4.17a382.214 382.214 0 0 1-2.453-4.022 351.934 351.934 0 0 0-2.574-4.2 213.445 213.445 0 0 1-2.188-3.578 62.753 62.753 0 0 0-1.272-2.07 6.119 6.119 0 0 1-1.005-2.958 5.744 5.744 0 0 1 .946-2.84c.236-.394.67-1.095 1.3-2.1.632-1.006 1.371-2.198 2.219-3.579.847-1.38 1.706-2.79 2.574-4.229.869-1.439 1.686-2.79 2.453-4.052.77-1.26 1.628-2.66 2.573-4.2H120l-11.711 19.106a3.773 3.773 0 0 0-.592 1.894c.039.706.286 1.385.709 1.952h.002Z"/><path fill="#F34531" d="M25.78 83.385a11.21 11.21 0 0 0-2.96-2.161 23.075 23.075 0 0 0-3.58-1.45 40.617 40.617 0 0 0-3.908-1.008 84.774 84.774 0 0 1-2.871-.71 13.227 13.227 0 0 1-2.368-.858 7.824 7.824 0 0 1-1.804-1.184 4.26 4.26 0 0 1-1.156-1.657 6.405 6.405 0 0 1-.383-2.34 7.146 7.146 0 0 1 .383-2.426 4.52 4.52 0 0 1 1.184-1.806 7.317 7.317 0 0 1 1.865-1.242 8.77 8.77 0 0 1 2.457-.71 20.756 20.756 0 0 1 3.048-.208c.93.002 1.858.051 2.783.147a25.84 25.84 0 0 1 2.782.445c.892.194 1.772.441 2.634.74.808.278 1.59.624 2.338 1.035l.83-5.208a14.741 14.741 0 0 0-2.635-1.066 35.344 35.344 0 0 0-2.812-.711 28.082 28.082 0 0 0-2.9-.443 30.32 30.32 0 0 0-3.02-.148 25.194 25.194 0 0 0-6.216.71 14.075 14.075 0 0 0-4.824 2.19 9.888 9.888 0 0 0-3.137 3.73 12.05 12.05 0 0 0-1.096 5.327 11.455 11.455 0 0 0 .681 4.172 8.551 8.551 0 0 0 1.924 2.99 11.436 11.436 0 0 0 2.84 2.073 21.745 21.745 0 0 0 3.465 1.421c1.243.395 2.516.73 3.818 1.007a52.74 52.74 0 0 1 2.96.74c.844.233 1.666.54 2.456.917.68.321 1.308.74 1.865 1.243a4.991 4.991 0 0 1 1.214 1.776c.313.812.464 1.676.444 2.546a8.241 8.241 0 0 1-.415 2.723 6.328 6.328 0 0 1-1.184 2.072 5.707 5.707 0 0 1-1.894 1.42 9.568 9.568 0 0 1-2.576.77 20.518 20.518 0 0 1-3.285.237 25.747 25.747 0 0 1-3.196-.207 38.476 38.476 0 0 1-3.315-.563 33.235 33.235 0 0 1-3.227-.859A61.75 61.75 0 0 1 0 95.816l.77 5.861c1.009.376 2.036.702 3.078.976.946.248 1.904.445 2.871.592.926.137 1.853.245 2.782.325.929.08 1.866.119 2.811.118a29.05 29.05 0 0 0 6.306-.651 15.082 15.082 0 0 0 5.15-2.131 10.02 10.02 0 0 0 3.433-3.877 13.098 13.098 0 0 0 1.214-5.95 13.356 13.356 0 0 0-.681-4.5 8.746 8.746 0 0 0-1.954-3.194ZM58.34 74.061a12.72 12.72 0 0 0-7.075-1.865 18.071 18.071 0 0 0-4.38.562 19.043 19.043 0 0 0-4.44 1.747c-.279.15-.555.319-.83.487v-2.737l-6.037.948v42.266h6.038v-13.254c.04.017.078.036.118.054 1.094.454 2.236.781 3.404.976a24.4 24.4 0 0 0 4.173.326 14.782 14.782 0 0 0 7.606-1.955 14.05 14.05 0 0 0 5.328-5.652 18.9 18.9 0 0 0 1.983-9.028 18.39 18.39 0 0 0-1.51-7.695 11.883 11.883 0 0 0-4.379-5.18Zm-1.57 19.802a8.147 8.147 0 0 1-3.404 3.728 10.937 10.937 0 0 1-5.416 1.244c-.902 0-1.803-.069-2.694-.208a16.872 16.872 0 0 1-2.752-.68 56.157 56.157 0 0 1-.888-.32V78.947c.078-.037.159-.084.237-.12.867-.394 1.676-.73 2.427-1.007a12.143 12.143 0 0 1 4.203-.77c1.824-.06 3.635.337 5.268 1.155a7.103 7.103 0 0 1 3.166 3.521 15.161 15.161 0 0 1 1.036 6.038 14.14 14.14 0 0 1-1.182 6.1ZM93.088 74.09a16.238 16.238 0 0 0-8.021-1.894 16.164 16.164 0 0 0-8.082 1.954 13.646 13.646 0 0 0-5.387 5.505 17.409 17.409 0 0 0-1.924 8.405 18.146 18.146 0 0 0 1.806 8.376 12.36 12.36 0 0 0 5.18 5.359 16.103 16.103 0 0 0 7.814 1.834 16.688 16.688 0 0 0 8.17-1.952 13.79 13.79 0 0 0 5.535-5.566 17.446 17.446 0 0 0 1.983-8.523 17.158 17.158 0 0 0-1.836-8.14 12.937 12.937 0 0 0-5.238-5.358Zm-.356 19.832a8.076 8.076 0 0 1-3.225 3.7 9.201 9.201 0 0 1-4.736 1.213 8.42 8.42 0 0 1-4.618-1.244 8.335 8.335 0 0 1-3.079-3.729 14.928 14.928 0 0 1-1.125-6.156 13.942 13.942 0 0 1 1.125-5.98 7.87 7.87 0 0 1 3.168-3.552 9.571 9.571 0 0 1 4.883-1.184 9.312 9.312 0 0 1 3.877.74 7.12 7.12 0 0 1 2.725 2.162 9.57 9.57 0 0 1 1.626 3.404c.37 1.44.55 2.923.533 4.41a14.738 14.738 0 0 1-1.154 6.216ZM119.873 72.64a11.701 11.701 0 0 0-3.138 1.36 15.563 15.563 0 0 0-2.782 2.22c-.14.14-.275.297-.414.444v-4.409l-6.038.888v29.895h6.038V80.673a15.152 15.152 0 0 1 3.227-1.729 20.638 20.638 0 0 1 1.864-.62 12.712 12.712 0 0 1 4.144-.445l.71-5.565a11.315 11.315 0 0 0-3.611.325ZM145.565 98.095c-.278.06-.583.118-.919.178l-1.005.177a8.588 8.588 0 0 1-.977.119c-.317.02-.613.03-.888.03a5.989 5.989 0 0 1-2.634-.533 3.829 3.829 0 0 1-1.687-1.569 4.994 4.994 0 0 1-.592-2.517V77.583h8.347l.651-4.736h-8.998v-9.352l-6.038 2.131v7.221h-4.559l-.652 4.736h5.211v17.641a10.038 10.038 0 0 0 .532 3.463 7.233 7.233 0 0 0 1.391 2.397 6.177 6.177 0 0 0 2.013 1.48c.783.36 1.608.619 2.456.77.84.155 1.692.234 2.545.237.632 0 1.254-.02 1.866-.06a19.86 19.86 0 0 0 1.687-.177c.512-.08.997-.169 1.451-.267a40.54 40.54 0 0 0 1.153-.265l.356-4.915c-.23.09-.468.159-.71.208Z"/></svg>
